X:1
T: I'm o'er young to marry yet
C:
R:Strathspey
Q: 128
K:D
M:4/4
L:1/16
|:A2|AD3 D3E F3E FA3|AD3 D3E FE3 E2A2|AD3 D3E F3E FA3|B3c d3B AF3 E2A2|
AD3 D3E F3E FA3|AD3 D3E FE3 E2A2|AD3 D3E F3E FA3|B3c d3B AF3 E2A2|
d3e d3e c2dc B2A2|B3c d3B AF3 F2A2|d3e d3e c2dc B2A2|B3c d3B AF3 E2A2|
d3e d3e c2dc B2A2|B3c d3B AF3 F2A2|d3e d3e c2dc B2A2|B3c d3B AF3 E2:|
